public/payments/common/wepay.svg

<svg width="44" height="45" viewBox="0 0 44 45" fill="none" xmlns="http://www.w3.org/2000/svg">
<path fill-rule="evenodd" clip-rule="evenodd" d="M0.6875 18.6499C1.375 18.5812 2.2 18.6499 2.95625 18.6499L3.78125 22.9812C4.2625 21.6062 4.60625 20.0937 5.01875 18.6499H7.21875C7.63125 20.0937 8.04375 21.5374 8.3875 22.9812C8.73125 21.6062 8.9375 20.0937 9.2125 18.6499H11.4812C10.8625 21.2624 10.3125 23.8749 9.7625 26.4874H7.425C7.0125 24.9062 6.4625 23.3249 6.05 21.8124C5.56875 23.3249 5.15625 24.9749 4.60625 26.4874H2.26875C1.85625 23.8062 1.30625 21.1937 0.6875 18.6499Z" fill="#14A0EF"/>
<path fill-rule="evenodd" clip-rule="evenodd" d="M1.58105 18.6499C2.26855 18.5812 2.26855 18.6499 2.95605 18.6499L3.78105 22.9812C4.2623 21.6062 4.60605 20.0937 5.01855 18.6499H7.21855C7.63105 20.0937 8.04355 21.5374 8.3873 22.9812C8.73105 21.6062 8.9373 20.0937 9.2123 18.6499H11.4811C10.8623 21.2624 10.3123 23.8749 9.7623 26.4874H7.4248C7.0123 24.9062 6.4623 23.3249 6.0498 21.8124C5.56855 23.3249 5.15605 24.9749 4.60605 26.4874H2.26855C1.85605 23.8062 2.13105 21.1937 1.58105 18.6499Z" fill="#1B7EC1"/>
<path fill-rule="evenodd" clip-rule="evenodd" d="M15.9501 18.5811H16.6376C19.3188 18.7186 20.6251 20.2311 20.4876 23.1874H14.9876C14.9876 24.3561 15.9501 25.0436 16.9813 24.6311C17.4626 24.4249 17.6688 24.0811 17.6688 24.0811L20.2813 24.3561C20.2813 24.4936 20.2126 24.6311 20.0751 24.7686C19.3876 25.7311 18.3563 26.4186 16.7063 26.4186H15.9501C13.7501 26.3499 12.3063 25.0436 12.1688 22.9124C12.0313 20.2999 13.5438 18.7874 15.9501 18.5811ZM15.4688 20.6436C15.1938 20.9186 15.0563 21.3311 14.9876 21.8811H17.7376C17.8063 20.5749 16.3626 19.8186 15.4688 20.6436ZM21.8626 18.6499C21.8626 18.6499 26.2626 18.2374 27.5001 18.9936C28.1188 19.4061 28.3938 20.0936 28.3938 20.9874C28.3938 23.1186 26.6751 23.6686 24.2688 23.4624V26.2811H21.8626V18.6499ZM26.1251 21.0561C26.1251 20.2311 25.2313 20.0936 24.3376 20.1624C24.2688 20.7124 24.3376 21.3311 24.3376 21.8811C25.2313 22.0186 26.1251 21.8811 26.1251 21.0561ZM30.6626 18.6499H33.2751L36.1626 26.3499H33.6876L33.3438 25.1124H30.5938L30.1813 26.3499H27.7751L30.6626 18.6499ZM31.0751 23.4624H32.7938L31.9001 20.6436L31.0751 23.4624ZM34.9938 18.7186L37.6063 18.6499L39.1876 21.2624L40.7688 18.6499H43.3126L40.4251 23.1186V26.3499H38.0188V23.1874L34.9938 18.7186Z" fill="#14A0EF"/>
<path fill-rule="evenodd" clip-rule="evenodd" d="M20.2813 24.3561C20.2813 24.4936 20.2126 24.6311 20.0751 24.7686C19.3876 25.7311 18.3563 26.4186 16.7063 26.4186H15.9501C13.7501 26.3499 12.9938 25.0436 12.8563 22.9124C12.6501 20.2311 13.5438 18.7186 15.9501 18.5811H16.6376C19.3188 18.7186 20.6251 20.2311 20.4876 23.1874H14.9876C14.9876 24.3561 15.9501 25.0436 16.9813 24.6311M15.4688 20.6436C15.1938 20.9186 15.0563 21.3311 14.9876 21.8811H18.3563C18.4938 20.5749 16.3626 19.8186 15.4688 20.6436ZM21.8626 18.6499C21.8626 18.6499 26.2626 18.2374 27.5001 18.9936C28.1188 19.4061 28.3938 20.0936 28.3938 20.9874C28.3938 23.1186 26.6751 23.6686 24.2688 23.4624V26.2811H22.5501L21.8626 18.6499ZM26.8126 21.0561C26.8126 20.2311 25.3001 20.0936 24.3376 20.1624C24.2688 20.7124 24.3376 21.3311 24.3376 21.8811C25.2313 22.0186 26.8126 21.8811 26.8126 21.0561ZM30.6626 18.6499H33.2751L36.1626 26.3499H34.3063L33.2751 25.1124H30.5251L30.1126 26.3499H28.3938L30.6626 18.6499ZM31.0751 23.4624H33.4126L31.9001 20.6436L31.0751 23.4624ZM34.9938 18.7186L37.6063 18.6499L39.1876 21.2624L40.7688 18.6499H43.3126L40.4251 23.1186V26.3499H38.0188L38.6376 23.1874L34.9938 18.7186Z" fill="#1B7EC1"/>
</svg>

<svg xmlns="http://www.w3.org/2000/svg" width="44" height="45" fill="none"><path fill="#14A0EF" fill-rule="evenodd" d="M.69 18.65c.69-.07 1.51 0 2.27 0l.82 4.33c.48-1.37.83-2.89 1.24-4.33h2.2c.41 1.44.82 2.89 1.17 4.33.34-1.37.55-2.89.82-4.33h2.27c-.62 2.61-1.17 5.22-1.72 7.84H7.43C7 24.9 6.46 23.32 6.04 21.8c-.48 1.51-.9 3.16-1.44 4.68H2.27c-.41-2.68-.96-5.3-1.58-7.84Z" clip-rule="evenodd"/><path fill="#1B7EC1" fill-rule="evenodd" d="M1.58 18.65c.69-.07.69 0 1.38 0l.82 4.33c.48-1.37.83-2.89 1.24-4.33h2.2c.41 1.44.82 2.89 1.17 4.33.34-1.37.55-2.89.82-4.33h2.27c-.62 2.61-1.17 5.22-1.72 7.84H7.42c-.4-1.58-.96-3.17-1.37-4.68-.48 1.51-.9 3.16-1.44 4.68H2.27c-.41-2.68-.14-5.3-.69-7.84Z" clip-rule="evenodd"/><path fill="#14A0EF" fill-rule="evenodd" d="M15.95 18.58h.69c2.68.14 3.99 1.65 3.85 4.6h-5.5c0 1.18.96 1.86 2 1.45.47-.2.68-.55.68-.55l2.61.28c0 .13-.07.27-.2.4a3.86 3.86 0 0 1-3.37 1.66h-.76c-2.2-.07-3.64-1.38-3.78-3.5-.14-2.62 1.37-4.13 3.78-4.34Zm-.48 2.06c-.28.28-.41.7-.48 1.24h2.75c.07-1.3-1.38-2.06-2.27-1.24Zm6.4-1.99s4.4-.41 5.63.34c.62.42.9 1.1.9 2 0 2.13-1.72 2.68-4.13 2.47v2.82h-2.4v-7.63Zm4.26 2.4c0-.82-.9-.96-1.8-.89-.06.55 0 1.17 0 1.72.9.14 1.8 0 1.8-.82Zm4.53-2.4h2.62l2.88 7.7H33.7l-.35-1.24H30.6l-.4 1.24h-2.41l2.88-7.7Zm.42 4.81h1.71l-.89-2.82-.82 2.82Zm3.91-4.74 2.62-.07 1.58 2.61 1.58-2.61h2.54l-2.88 4.47v3.23h-2.41v-3.16l-3.03-4.47Z" clip-rule="evenodd"/><path fill="#1B7EC1" fill-rule="evenodd" d="M20.28 24.36c0 .13-.07.27-.2.4a3.86 3.86 0 0 1-3.37 1.66h-.76c-2.2-.07-2.96-1.38-3.1-3.5-.2-2.69.7-4.2 3.1-4.34h.69c2.68.14 3.99 1.65 3.85 4.6h-5.5c0 1.18.96 1.86 2 1.45m-1.52-3.99c-.28.28-.41.7-.48 1.24h3.37c.13-1.3-2-2.06-2.9-1.24Zm6.4-1.99s4.4-.41 5.63.34c.62.42.9 1.1.9 2 0 2.13-1.72 2.68-4.13 2.47v2.82h-1.72l-.69-7.63Zm4.94 2.4c0-.82-1.51-.96-2.47-.89-.07.55 0 1.17 0 1.72.9.14 2.47 0 2.47-.82Zm3.85-2.4h2.62l2.88 7.7h-1.85l-1.03-1.24h-2.75l-.42 1.24H28.4l2.27-7.7Zm.42 4.81h2.33l-1.51-2.82-.82 2.82Zm3.91-4.74 2.62-.07 1.58 2.61 1.58-2.61h2.54l-2.88 4.47v3.23h-2.41l.62-3.16-3.65-4.47Z" clip-rule="evenodd"/></svg>
